icons/svg/icons8/swimming.svg

<svg width="26" height="26" viewBox="0 0 26 26" fill="none" xmlns="http://www.w3.org/2000/svg">
<path d="M20 13.812C21.5536 13.812 22.813 12.5526 22.813 10.999C22.813 9.44543 21.5536 8.186 20 8.186C18.4464 8.186 17.187 9.44543 17.187 10.999C17.187 12.5526 18.4464 13.812 20 13.812Z" fill="#333333"/>
<path d="M0.0581055 16.404C0.0581055 16.404 1.96011 20.89 7.80111 20.89C14.3621 20.89 14.6771 18.925 19.0931 18.925C23.2761 18.925 25.8751 19.436 25.8751 19.436C25.8751 19.436 22.8971 16.819 19.0931 16.819C15.2861 16.819 12.0001 18.729 7.80111 18.729C2.77511 18.729 0.0581055 16.404 0.0581055 16.404Z" fill="#333333"/>
<path d="M16.1719 14.925C13.2129 14.925 6.97894 17.998 5.66594 16.209C6.32794 15.869 11.7869 12.526 11.7869 12.526L10.7759 10.286C10.7759 10.286 10.5559 9.371 9.79794 9.624C9.03994 9.876 5.30094 11.312 4.68694 11.547C3.12994 12.146 2.49194 10.966 3.99894 10.088C5.94894 8.94901 9.61294 7.14001 10.1699 6.84201C10.8739 6.46301 11.5369 6.39501 12.1329 7.41401C12.9989 8.89701 16.2659 13.977 16.2659 13.977C16.2659 13.977 16.8139 14.925 16.1719 14.925Z" fill="#333333"/>
</svg>

<?xml version="1.0" encoding="utf-8"?>
<!-- Generator: Adobe Illustrator 15.0.0, SVG Export Plug-In . SVG Version: 6.00 Build 0)  -->
<!DOCTYPE svg PUBLIC "-//W3C//DTD SVG 1.1//EN" "http://www.w3.org/Graphics/SVG/1.1/DTD/svg11.dtd">
<svg version="1.1" id="Layer_1" xmlns="http://www.w3.org/2000/svg" xmlns:xlink="http://www.w3.org/1999/xlink" x="0px" y="0px"
	 width="26px" height="26px" viewBox="0 0 26 26" enable-background="new 0 0 26 26" xml:space="preserve">
<rect fill="none" width="26" height="26"/>
<circle fill="#333333" cx="20" cy="10.999" r="2.813"/>
<path fill="#333333" d="M0.058,16.404c0,0,1.902,4.486,7.743,4.486c6.561,0,6.876-1.965,11.292-1.965
	c4.183,0,6.782,0.511,6.782,0.511s-2.978-2.617-6.782-2.617c-3.807,0-7.093,1.91-11.292,1.91
	C2.775,18.729,0.058,16.404,0.058,16.404z"/>
<path fill="#333333" d="M16.172,14.925c-2.959,0-9.193,3.073-10.506,1.284c0.662-0.34,6.121-3.683,6.121-3.683l-1.011-2.24
	c0,0-0.22-0.915-0.978-0.662c-0.758,0.252-4.497,1.688-5.111,1.923c-1.557,0.599-2.195-0.581-0.688-1.459
	c1.95-1.139,5.614-2.948,6.171-3.246c0.704-0.379,1.367-0.447,1.963,0.572c0.866,1.483,4.133,6.563,4.133,6.563
	S16.814,14.925,16.172,14.925z"/>
</svg>
